icons/linear-ele-office-folder-check.svg

<svg xmlns="http://www.w3.org/2000/svg" width="32px" height="32px" viewBox="0 0 32 32" version="1.1">
    <title>linear-ele-office-folder-check</title>
    <g id="linear-ele-office-folder-check" stroke-width="1" fill-rule="evenodd">
        <path d="M12,4 C12.2652165,4 12.5195704,4.10535684 12.7071068,4.29289322 L16.415,8 L29,8 C29.5128358,8 29.9355072,8.38604019 29.9932723,8.88337887 L30,9 L30,27 C30,27.5522847 29.5522847,28 29,28 L3,28 C2.44771525,28 2,27.5522847 2,27 L2,5 C2,4.44771525 2.44771525,4 3,4 L12,4 Z M11.585,6 L4,6 L4,26 L28,26 L28,10 L16,10 C15.7789863,10 15.565516,9.92683553 15.3919705,9.79391937 L15.2928932,9.70710678 L11.585,6 Z M21.2071068,14.7928932 C21.5976311,15.1834175 21.5976311,15.8165825 21.2071068,16.2071068 L15.7071068,21.7071068 C15.3165825,22.0976311 14.6834175,22.0976311 14.2928932,21.7071068 L11.2928932,18.7071068 C10.9023689,18.3165825 10.9023689,17.6834175 11.2928932,17.2928932 C11.6834175,16.9023689 12.3165825,16.9023689 12.7071068,17.2928932 L15,19.585 L19.7928932,14.7928932 C20.1834175,14.4023689 20.8165825,14.4023689 21.2071068,14.7928932 Z" id="&#24418;&#29366;" fill-rule="nonzero" />
    </g>
</svg>

<svg xmlns="http://www.w3.org/2000/svg" viewBox="0 0 32 32"><path fill="currentColor" d="M12 4a1 1 0 0 1 .707.293L16.415 8H29a1 1 0 0 1 .993.883L30 9v18a1 1 0 0 1-1 1H3a1 1 0 0 1-1-1V5a1 1 0 0 1 1-1zm-.415 2H4v20h24V10H16a1 1 0 0 1-.608-.206l-.1-.087zm9.622 8.793a1 1 0 0 1 0 1.414l-5.5 5.5a1 1 0 0 1-1.414 0l-3-3a1 1 0 0 1 1.414-1.414L15 19.585l4.793-4.792a1 1 0 0 1 1.414 0"/></svg>
